X:1
L:1/8
Q:1/4=120
M:2/2
K:D
 f>e | d>cd>e d>Af>e | d>cd>e d>Af>e | d>ef>g a>fb>a | g>fe>d c>AB>c | d>cd>e d>Af>e | 
 d>cd>e d>Af>e | d>af>d c>AB>c | d2 f2 d2 :: c>d | e>cA>c e>cf>d | g>ec>e g>ea>f | gfed cdAf | 
 e^gag af=ge | d>cd>e d>Af>e | d>cd>e d>Af>e | d>af>d c>AB>c | d2 f2 d2 :|
